X:24
T: Patak partján kis gerlica
O: Egyházaskozár (Baranya), 1951
Q: "Parlando" 1/4=69
L:1/4
K:C
A/A/A/A/ | c/B/ A<HG |
c/B/A/G/ | G>F | D<D | 
D/E/F/E/ | G/G/ F<E | 
A/A/B/A/ | G>F E<HE | 

